static/img/light/logos/q42.svg

<svg width="334" height="500" viewBox="0 0 334 500" fill="none" xmlns="http://www.w3.org/2000/svg">
<g clip-path="url(#clip0_1690_548)">
<path d="M166.6 500C214.8 345.7 273 319 316.9 232.9C371.2 126.5 282.5 0 166.6 0C50.6998 0 -37.9002 126.5 16.3998 232.9C60.1998 319 118.4 345.7 166.6 500Z" fill="#84BC2D"/>
<path d="M131.501 243L108.801 276.9H131.501V243ZM90.0008 277.8L131.401 219.9H150.201V276.8H161.501V293.2H150.201V309.8H131.501V293.2H90.0008V277.8ZM175.001 251.8C175.001 251.8 174.901 249.8 174.901 247.6C175.101 231.4 186.901 217.4 207.901 217.4C228.101 217.4 240.501 230.8 240.501 246.5C240.501 258.2 234.101 267.7 222.901 274.5L205.501 285.1C202.001 287.3 199.101 289.8 197.701 293.3H241.001V309.9H174.201C174.301 294 179.301 281.1 195.501 271.3L210.401 262.4C218.101 257.8 221.101 253.1 221.101 246.8C221.101 240.2 216.501 234.4 207.401 234.4C197.801 234.4 193.101 240.9 193.101 249.4C193.101 251.1 193.201 251.8 193.201 251.8H175.001ZM256.401 175.7L237.001 160.8C243.901 148.8 247.901 135 247.901 120.1C247.901 75.2 211.501 38.8 166.601 38.8C121.701 38.8 85.3008 75.2 85.3008 120.1C85.3008 165 121.701 201.4 166.601 201.4C187.201 201.4 205.901 193.8 220.201 181.2L240.001 196.4L256.401 175.7ZM166.601 170.3C138.901 170.3 116.501 147.9 116.501 120.2C116.501 92.5 138.901 70.1 166.601 70.1C194.301 70.1 216.701 92.5 216.701 120.2C216.701 127.9 215.001 135.1 211.901 141.6L190.801 125.4L174.401 146.1L194.701 161.7C186.701 167.1 177.001 170.3 166.601 170.3Z" fill="white"/>
</g>
<defs>
<clipPath id="clip0_1690_548">
<rect width="333.2" height="500" fill="white"/>
</clipPath>
</defs>
</svg>

<svg xmlns="http://www.w3.org/2000/svg" xmlns:xlink="http://www.w3.org/1999/xlink" version="1.1" id="Layer_1" x="0px" y="0px" viewBox="0 0 333.2 500" style="enable-background:new 0 0 333.2 500;" xml:space="preserve">
	<path fill="#84bc2d" d="M166.6,500C214.8,345.7,273,319,316.9,232.9C371.2,126.5,282.5,0,166.6,0C50.7,0-37.9,126.5,16.4,232.9 C60.2,319,118.4,345.7,166.6,500z"/>
	<path fill="#ffffff" d="M131.5,243l-22.7,33.9h22.7V243z M90,277.8l41.4-57.9h18.8v56.9h11.3v16.4h-11.3v16.6h-18.7v-16.6H90V277.8z"/>
	<path fill="#ffffff" d="M175,251.8c0,0-0.1-2-0.1-4.2c0.2-16.2,12-30.2,33-30.2c20.2,0,32.6,13.4,32.6,29.1c0,11.7-6.4,21.2-17.6,28 l-17.4,10.6c-3.5,2.2-6.4,4.7-7.8,8.2H241v16.6h-66.8c0.1-15.9,5.1-28.8,21.3-38.6l14.9-8.9c7.7-4.6,10.7-9.3,10.7-15.6 c0-6.6-4.6-12.4-13.7-12.4c-9.6,0-14.3,6.5-14.3,15c0,1.7,0.1,2.4,0.1,2.4H175z"/>
	<path fill="#ffffff" d="M256.4,175.7L237,160.8c6.9-12,10.9-25.8,10.9-40.7c0-44.9-36.4-81.3-81.3-81.3s-81.3,36.4-81.3,81.3 c0,44.9,36.4,81.3,81.3,81.3c20.6,0,39.3-7.6,53.6-20.2l19.8,15.2L256.4,175.7z M166.6,170.3c-27.7,0-50.1-22.4-50.1-50.1 s22.4-50.1,50.1-50.1s50.1,22.4,50.1,50.1c0,7.7-1.7,14.9-4.8,21.4l-21.1-16.2l-16.4,20.7l20.3,15.6 C186.7,167.1,177,170.3,166.6,170.3z"/>
</svg>
